X: 5
T: Kathleen Hehir's
R: slide
M: 12/8
L: 1/8
K: Dmaj
|: A |dcd e2 d c2 E EFG | B2 B BAG F2 D D2 A |
d2 d e2 d c2 E EFG | BAG FGE D3 D2 :|
|: [EA] |F2 A dcd c2 B G2 G | B2 A G2 E B2 A F3 |
F2 A d2 d c2 B G2 F | EFG ABc d3 d2 :|
|: A |dAd d2 e f2 d A2 d | fff fed c2 d eAA |
ddd d2 e f2 d A2 F |[1 EFG ABc d3 d2 :|[2 EFG ABc d3 ||
f2 g |a2 f f2 d Adf agf | g3 e2 c Ace gfe |
a2 f f2 d Adf agf | gec ABc dfe d3 |
a2 f f2 d A2 a agf | g3 e2 c Ace gfe |
a2 f f2 d Adf agf | gec ABc d3 d2 |]


Tune 157	Setting 157

